X:141
T:Father Dollard's Favorite
C:Joe Buchanan's Scottish Tome - Page 256.2
I:256 2
Z:Carl Allison
R:Jig
L:1/8
M:6/8
K:D
DFA dcd | AFA BGE | DFA dcd | AFA gfe | DFA dcd | AFA BGE | agd bge | AFD E2 D :| 
fef gfg | agd AFD | fef gfg | DFA B2 A | fef gfg | afd bge | fga Bcd | AFD E2 D :|

